client/assets/images/quick-start/day.svg

<svg width="20" height="20" viewBox="0 0 20 20" fill="none" xmlns="http://www.w3.org/2000/svg">
<mask id="mask0" mask-type="alpha" maskUnits="userSpaceOnUse" x="0" y="0" width="20" height="20">
<path fill-rule="evenodd" clip-rule="evenodd" d="M9.16668 0.875H10.8333V3.33333H9.16668V0.875ZM4.13334 2.95833L5.63334 4.45L4.45001 5.625L2.95834 4.13333L4.13334 2.95833ZM3.33334 9.16667H0.833344V10.8333H3.33334V9.16667ZM17.0397 4.12667L15.867 2.95417L14.3763 4.44492L15.5488 5.6175L17.0397 4.12667ZM14.3667 15.55L15.8583 17.05L17.0333 15.875L15.5333 14.3833L14.3667 15.55ZM19.1667 9.16667H16.6667V10.8333H19.1667V9.16667ZM10 5C7.24168 5 5.00001 7.24167 5.00001 10C5.00001 12.7583 7.24168 15 10 15C12.7583 15 15 12.7583 15 10C15 7.24167 12.7583 5 10 5ZM6.66668 10C6.66668 11.8417 8.15834 13.3333 10 13.3333C11.8417 13.3333 13.3333 11.8417 13.3333 10C13.3333 8.15833 11.8417 6.66667 10 6.66667C8.15834 6.66667 6.66668 8.15833 6.66668 10ZM9.16668 16.6667H10.8333V19.125H9.16668V16.6667ZM4.13334 17.0417L2.95834 15.8667L4.45001 14.3667L5.62501 15.5417L4.13334 17.0417Z" fill="#fff"/>
</mask>
<g mask="url(#mask0)">
<rect width="20" height="20" fill="#3C434A"/>
</g>
</svg>

<svg width="20" height="20" fill="none" xmlns="http://www.w3.org/2000/svg"><mask id="a" maskUnits="userSpaceOnUse" x="0" y="0" width="20" height="20"><path fill-rule="evenodd" clip-rule="evenodd" d="M9.167.875h1.666v2.458H9.167V.875zM4.133 2.958l1.5 1.492L4.45 5.625 2.958 4.133l1.175-1.175zm-.8 6.209h-2.5v1.666h2.5V9.167zm13.707-5.04l-1.173-1.173-1.49 1.49 1.172 1.173 1.49-1.49zM14.367 15.55l1.491 1.5 1.175-1.175-1.5-1.492-1.166 1.167zm4.8-6.383h-2.5v1.666h2.5V9.167zM10 5c-2.758 0-5 2.242-5 5s2.242 5 5 5 5-2.242 5-5-2.242-5-5-5zm-3.333 5A3.332 3.332 0 0010 13.333 3.332 3.332 0 0013.333 10a3.332 3.332 0 10-6.667 0zm2.5 6.667h1.666v2.458H9.167v-2.458zm-5.034.375l-1.175-1.175 1.492-1.5 1.175 1.175-1.492 1.5z" fill="#fff"/></mask><g mask="url(#a)"><path fill="#3C434A" d="M0 0h20v20H0z"/></g></svg>
